assets/post/images/dual6.svg

<svg xmlns="http://www.w3.org/2000/svg" width="996" height="620" overflow="hidden"><defs><clipPath id="a"><path d="M352 206h996v620H352z"/></clipPath></defs><g clip-path="url(#a)" transform="translate(-352 -206)"><path fill="none" stroke="#000" stroke-miterlimit="8" stroke-width="9.167" d="M363.537 656.584c-43.068-149.517 139.908-333.487 408.689-410.909 268.784-77.423 521.584-18.979 564.654 130.538 43.07 149.516-139.91 333.486-408.69 410.909-268.781 77.422-521.584 18.978-564.653-130.538Z"/><path fill="none" stroke="#000" stroke-dasharray="27.5 9.16667" stroke-miterlimit="8" stroke-width="9.167" d="M483.553 622.013c-32.447-112.645 105.406-251.247 307.903-309.576s392.954-14.298 425.404 98.346-105.4 251.247-307.901 309.577c-202.498 58.329-392.958 14.298-425.406-98.347Z"/><path fill="none" stroke="#000" stroke-dasharray="27.5 9.16667" stroke-miterlimit="8" stroke-width="9.167" d="M615.717 584.081c-20.754-72.052 67.422-160.708 196.947-198.018 129.526-37.31 251.356-9.145 272.106 62.907 20.76 72.052-67.42 160.707-196.946 198.017s-251.352 9.146-272.107-62.906Z"/><path fill="#d74514" fill-rule="evenodd" d="M831.371 521.378c-3.066-10.642 3.076-21.754 13.718-24.819 10.642-3.066 21.754 3.076 24.819 13.718s-3.077 21.754-13.718 24.819-21.754-3.077-24.819-13.718"/></g></svg>

<svg width="996" height="620" xmlns="http://www.w3.org/2000/svg" xmlns:xlink="http://www.w3.org/1999/xlink" overflow="hidden"><defs><clipPath id="clip0"><rect x="352" y="206" width="996" height="620"/></clipPath></defs><g clip-path="url(#clip0)" transform="translate(-352 -206)"><path d="M363.537 656.584C320.469 507.067 503.445 323.097 772.226 245.675 1041.01 168.252 1293.81 226.696 1336.88 376.213 1379.95 525.729 1196.97 709.699 928.19 787.122 659.409 864.544 406.606 806.1 363.537 656.584Z" stroke="#000000" stroke-width="9.16667" stroke-miterlimit="8" fill="none" fill-rule="evenodd"/><path d="M483.553 622.013C451.106 509.368 588.959 370.766 791.456 312.437 993.954 254.107 1184.41 298.139 1216.86 410.783 1249.31 523.428 1111.46 662.03 908.959 720.36 706.461 778.689 516.001 734.658 483.553 622.013Z" stroke="#000000" stroke-width="9.16667" stroke-miterlimit="8" stroke-dasharray="27.5 9.16667" fill="none" fill-rule="evenodd"/><path d="M615.717 584.081C594.963 512.029 683.139 423.373 812.664 386.063 942.19 348.753 1064.02 376.918 1084.77 448.97 1105.53 521.022 1017.35 609.677 887.824 646.987 758.298 684.297 636.472 656.133 615.717 584.081Z" stroke="#000000" stroke-width="9.16667" stroke-miterlimit="8" stroke-dasharray="27.5 9.16667" fill="none" fill-rule="evenodd"/><path d="M831.371 521.378C828.305 510.736 834.447 499.624 845.089 496.559 855.731 493.493 866.843 499.635 869.908 510.277 872.973 520.919 866.831 532.031 856.19 535.096 845.548 538.161 834.436 532.019 831.371 521.378Z" fill="#D74514" fill-rule="evenodd"/></g></svg>
